src/assets/images/services/sentry.svg

<svg width="36" height="36" viewBox="0 0 36 36" fill="none" xmlns="http://www.w3.org/2000/svg">
<rect width="36" height="36" fill="white"/>
<circle cx="18" cy="18" r="18" fill="#5F4575"/>
<path d="M20.176 9.0286C19.987 8.71477 19.72 8.45515 19.401 8.27493C19.0819 8.09471 18.7218 8 18.3554 8C17.989 8 17.6288 8.09471 17.3098 8.27493C16.9908 8.45515 16.7238 8.71477 16.5347 9.0286L13.5397 14.1583C15.8278 15.3006 17.7772 17.0216 19.1945 19.1503C20.6118 21.279 21.4476 23.7414 21.6189 26.293H19.5161C19.345 24.1058 18.6058 22.0012 17.3716 20.1874C16.1374 18.3736 14.451 16.9135 12.4792 15.9516L9.70727 20.7445C10.8157 21.2417 11.7814 22.0095 12.5156 22.9775C13.2497 23.9454 13.7286 25.0824 13.9084 26.2839H9.07914C9.02186 26.2798 8.9665 26.2616 8.91804 26.2308C8.86957 26.2 8.82954 26.1576 8.80154 26.1075C8.77354 26.0574 8.75846 26.0011 8.75766 25.9437C8.75685 25.8862 8.77035 25.8295 8.79694 25.7786L10.1351 23.5028C9.68175 23.1246 9.1636 22.8316 8.60577 22.638L7.28124 24.9138C7.14335 25.1503 7.05383 25.4119 7.01789 25.6833C6.98194 25.9547 7.00029 26.2306 7.07186 26.4948C7.14343 26.7591 7.26679 27.0065 7.43479 27.2226C7.60279 27.4388 7.81207 27.6195 8.05047 27.7541C8.36457 27.931 8.71861 28.025 9.07914 28.0272H15.6927C15.8155 26.5115 15.5448 24.9898 14.9069 23.6094C14.269 22.2291 13.2854 21.0369 12.0514 20.1483L13.1028 18.3276C14.6601 19.3972 15.9116 20.8544 16.7338 22.5554C17.5559 24.2564 17.9203 26.1423 17.791 28.0272H23.3941C23.5245 25.1719 22.9034 22.3324 21.5927 19.7924C20.2819 17.2524 18.3275 15.1009 15.9248 13.5529L18.0504 9.91161C18.0978 9.83226 18.1746 9.77482 18.2641 9.7518C18.3536 9.72878 18.4486 9.74205 18.5284 9.78872C18.7696 9.92072 27.7636 25.6148 27.932 25.7968C27.9617 25.85 27.9768 25.9101 27.9758 25.971C27.9748 26.032 27.9577 26.0915 27.9263 26.1437C27.8949 26.1959 27.8503 26.2389 27.7969 26.2683C27.7436 26.2977 27.6834 26.3125 27.6225 26.3112H25.456C25.4833 26.8908 25.4833 27.4688 25.456 28.0454H27.6316C27.9079 28.0472 28.1818 27.9942 28.4374 27.8894C28.6931 27.7847 28.9254 27.6302 29.121 27.4351C29.3166 27.2399 29.4715 27.0079 29.5768 26.7525C29.6821 26.4971 29.7357 26.2233 29.7345 25.9471C29.7348 25.5821 29.6373 25.2238 29.4523 24.9093L20.176 9.0286Z" fill="white"/>
</svg>

<svg xmlns="http://www.w3.org/2000/svg" width="36" height="36" fill="none"><path fill="#fff" d="M0 0h36v36H0z"/><circle cx="18" cy="18" r="18" fill="#5F4575"/><path fill="#fff" d="M20.176 9.029a2.125 2.125 0 0 0-3.641 0l-2.995 5.13a14.66 14.66 0 0 1 8.079 12.134h-2.103a12.6 12.6 0 0 0-7.037-10.341l-2.772 4.792a7.25 7.25 0 0 1 4.201 5.54H9.08a.346.346 0 0 1-.282-.505l1.338-2.276a4.9 4.9 0 0 0-1.53-.865l-1.324 2.276a2.066 2.066 0 0 0 .77 2.84c.314.177.668.271 1.028.273h6.614a8.83 8.83 0 0 0-3.642-7.879l1.052-1.82a10.87 10.87 0 0 1 4.688 9.7h5.603a16.33 16.33 0 0 0-7.47-14.475l2.126-3.641a.35.35 0 0 1 .478-.123c.242.132 9.236 15.826 9.404 16.008a.346.346 0 0 1-.31.514h-2.166q.04.87 0 1.734h2.176a2.088 2.088 0 0 0 1.82-3.136z"/></svg>
